packages/foundations/assets/icons/functional/images/transportation/electric_scooter.svg

<svg xmlns="http://www.w3.org/2000/svg" width="32" height="32" fill="none"><path fill="#1A1C1F" fill-rule="evenodd" d="M25.633 5.388c-1.307.278-1.524.346-1.87.583-.698.481-1.106 1.227-1.107 2.028-.001.222.263 1.767.725 4.256.399 2.149.725 3.925.725 3.946s-.234.18-.52.353c-.621.376-1.436.945-1.986 1.387-.579.466-1.438 1.339-1.704 1.732-.501.744-.826 1.723-.891 2.687l-.034.52H8.969l-.057-.266c-.276-1.286-1.346-2.353-2.652-2.644-.52-.116-1.331-.081-1.833.077-.842.267-1.644.95-2.023 1.725-.289.59-.383.979-.386 1.588-.004.993.306 1.739 1.021 2.456.485.487.826.699 1.468.913.311.104.479.124 1.013.121.556-.002.696-.022 1.067-.15.863-.299 1.599-.905 1.967-1.62l.089-.173h5.67c6.056 0 5.946.004 6.317-.26.303-.215.351-.411.358-1.447.008-1.074.078-1.453.386-2.08.247-.503.984-1.259 1.879-1.928.628-.469 1.225-.868 1.25-.836.028.034.363 1.916.343 1.929l-.257.165c-1.159.744-1.794 2.224-1.525 3.553.356 1.755 1.889 2.963 3.629 2.859.908-.054 1.595-.371 2.268-1.046.715-.717 1.025-1.463 1.021-2.456a3.2 3.2 0 0 0-.352-1.52 3.46 3.46 0 0 0-2.398-1.875 5 5 0 0 1-.387-.089c-.02-.02-2.205-11.812-2.205-11.898 0-.046.066-.153.147-.24.135-.144.24-.176 1.346-.406 1.291-.268 1.495-.349 1.698-.678a.98.98 0 0 0-.087-1.17c-.165-.196-.505-.363-.731-.359-.088.002-.709.12-1.38.263M3.6 15.965c-.329.156-.61.57-.612.903-.003.353.342.842.661.94.091.028.524.065.964.084 2.497.106 3.599.633 4.317 2.061.286.569.45.765.709.851.417.138.823.038 1.101-.27.337-.373.328-.767-.035-1.514-.842-1.734-2.227-2.659-4.492-2.998-.792-.118-2.409-.153-2.613-.057m2.581 6.085c.504.256.806.766.806 1.364 0 .606-.452 1.211-1.035 1.386-1.289.386-2.403-.992-1.744-2.158a1.484 1.484 0 0 1 1.973-.592m20.74-.102a1.48 1.48 0 0 1 .681 2.412c-.711.791-1.952.631-2.423-.311a1.497 1.497 0 0 1 1.305-2.177c.09-.003.287.031.437.076"/></svg>

<svg width="32" height="32" viewBox="0 0 32 32" fill="none" xmlns="http://www.w3.org/2000/svg"><path d="M25.633 5.388 C 24.326 5.666,24.109 5.734,23.763 5.971 C 23.065 6.452,22.657 7.198,22.656 7.999 C 22.655 8.221,22.919 9.766,23.381 12.255 C 23.780 14.404,24.106 16.180,24.106 16.201 C 24.106 16.223,23.872 16.381,23.586 16.554 C 22.965 16.930,22.150 17.499,21.600 17.941 C 21.021 18.407,20.162 19.280,19.896 19.673 C 19.395 20.417,19.070 21.396,19.005 22.360 L 18.971 22.880 13.970 22.880 L 8.969 22.880 8.912 22.614 C 8.636 21.328,7.566 20.261,6.260 19.970 C 5.740 19.854,4.929 19.889,4.427 20.047 C 3.585 20.314,2.783 20.997,2.404 21.772 C 2.115 22.362,2.021 22.751,2.018 23.360 C 2.014 24.353,2.324 25.099,3.039 25.816 C 3.524 26.303,3.865 26.515,4.507 26.729 C 4.818 26.833,4.986 26.853,5.520 26.850 C 6.076 26.848,6.216 26.828,6.587 26.700 C 7.450 26.401,8.186 25.795,8.554 25.080 L 8.643 24.907 14.313 24.907 C 20.369 24.907,20.259 24.911,20.630 24.647 C 20.933 24.432,20.981 24.236,20.988 23.200 C 20.996 22.126,21.066 21.747,21.374 21.120 C 21.621 20.617,22.358 19.861,23.253 19.192 C 23.881 18.723,24.478 18.324,24.503 18.356 C 24.531 18.390,24.866 20.272,24.846 20.285 C 24.835 20.292,24.720 20.366,24.589 20.450 C 23.430 21.194,22.795 22.674,23.064 24.003 C 23.420 25.758,24.953 26.966,26.693 26.862 C 27.601 26.808,28.288 26.491,28.961 25.816 C 29.676 25.099,29.986 24.353,29.982 23.360 C 29.980 22.775,29.886 22.371,29.630 21.840 C 29.168 20.882,28.273 20.182,27.232 19.965 C 27.025 19.922,26.851 19.882,26.845 19.876 C 26.825 19.856,24.640 8.064,24.640 7.978 C 24.640 7.932,24.706 7.825,24.787 7.738 C 24.922 7.594,25.027 7.562,26.133 7.332 C 27.424 7.064,27.628 6.983,27.831 6.654 C 28.064 6.277,28.031 5.825,27.744 5.484 C 27.579 5.288,27.239 5.121,27.013 5.125 C 26.925 5.127,26.304 5.245,25.633 5.388 M3.600 15.965 C 3.271 16.121,2.990 16.535,2.988 16.868 C 2.985 17.221,3.330 17.710,3.649 17.808 C 3.740 17.836,4.173 17.873,4.613 17.892 C 7.110 17.998,8.212 18.525,8.930 19.953 C 9.216 20.522,9.380 20.718,9.639 20.804 C 10.056 20.942,10.462 20.842,10.740 20.534 C 11.077 20.161,11.068 19.767,10.705 19.020 C 9.863 17.286,8.478 16.361,6.213 16.022 C 5.421 15.904,3.804 15.869,3.600 15.965 M6.181 22.050 C 6.685 22.306,6.987 22.816,6.987 23.414 C 6.987 24.020,6.535 24.625,5.952 24.800 C 4.663 25.186,3.549 23.808,4.208 22.642 C 4.602 21.945,5.463 21.687,6.181 22.050 M26.921 21.948 C 27.970 22.260,28.333 23.546,27.602 24.360 C 26.891 25.151,25.650 24.991,25.179 24.049 C 24.683 23.055,25.369 21.909,26.484 21.872 C 26.574 21.869,26.771 21.903,26.921 21.948 " fill="#1A1C1F" stroke="none" fill-rule="evenodd"></path></svg>
